X: 36282
T: Seamus Cooley's
R: jig
M: 6/8
K: Dmajor
|:fef d3|FAA A3|ABd edB|efe ede|
fef d3|FAA A3|ABd edB|ded d3:|
|:fef a2f|fef a2f|efe edB|efe ede|
[1 fef a2f|fef a2f|efe edB|d3 d2e:|
[2 fef d3|FAA A3|ABd edB|ded d3||

